boxicons/svg/logos/bxl-dropbox.svg

<svg xmlns="http://www.w3.org/2000/svg" width="24" height="24" viewBox="0 0 24 24"><path d="M7.004 3.5 2 6.689l5.004 3.186 5.002-3.186zm10.005 0-5.003 3.189 5.003 3.186 5.003-3.186zM2 13.062l5.004 3.187 5.002-3.187-5.002-3.187zm15.009-3.187-5.003 3.187 5.003 3.187 5.003-3.187zM7.004 17.311l5.002 3.189 5.003-3.189-5.003-3.186z"/></svg>

<svg xmlns="http://www.w3.org/2000/svg" width="24" height="24" viewBox="0 0 24 24"><path d="M7.004 3.5L2 6.689 7.004 9.875 12.006 6.689zM17.009 3.5L12.006 6.689 17.009 9.875 22.012 6.689zM2 13.062L7.004 16.249 12.006 13.062 7.004 9.875zM17.009 9.875L12.006 13.062 17.009 16.249 22.012 13.062zM7.004 17.311L12.006 20.5 17.009 17.311 12.006 14.125z"/></svg>
